tools/download-figma-icons/icons/outlined-large/heater.svg

<svg width="64" height="64" viewBox="0 0 64 64" fill="none" xmlns="http://www.w3.org/2000/svg">
<path fill-rule="evenodd" clip-rule="evenodd" d="M21.4599 10.0116C19.5279 10.0116 17.9549 11.5836 17.9549 13.5166V51.9074C17.9549 53.8394 19.5279 55.4114 21.4599 55.4114C23.3939 55.4114 24.9659 53.8394 24.9659 51.9074V13.5166C24.9659 11.5836 23.3939 10.0116 21.4599 10.0116ZM21.4599 58.4234C17.8669 58.4234 14.9439 55.4994 14.9439 51.9074V13.5166C14.9439 9.92364 17.8669 6.99965 21.4599 6.99965C25.0539 6.99965 27.9778 9.92364 27.9778 13.5166V51.9074C27.9778 55.4994 25.0539 58.4234 21.4599 58.4234ZM35.9665 13.5166C35.9665 11.5836 37.5385 10.0116 39.4725 10.0116C41.4045 10.0116 42.9775 11.5836 42.9775 13.5166V51.9074C42.9775 53.8394 41.4045 55.4114 39.4725 55.4114C37.5385 55.4114 35.9665 53.8394 35.9665 51.9074V13.5166ZM32.9545 51.9074C32.9545 55.4994 35.8785 58.4234 39.4725 58.4234C43.0655 58.4234 45.9884 55.4994 45.9884 51.9074V13.5166C45.9884 9.92364 43.0655 6.99965 39.4725 6.99965C35.8785 6.99965 32.9545 9.92364 32.9545 13.5166V51.9074ZM53.9781 13.5166C53.9781 11.5836 55.5501 10.0116 57.4831 10.0116C59.4161 10.0116 60.9881 11.5836 60.9881 13.5166V51.9074C60.9881 53.8394 59.4161 55.4114 57.4831 55.4114C55.5501 55.4114 53.9781 53.8394 53.9781 51.9074V13.5166ZM50.9661 51.9074C50.9661 55.4994 53.8891 58.4234 57.4831 58.4234C61.0771 58.4234 64 55.4994 64 51.9074V13.5166C64 9.92364 61.0771 6.99965 57.4831 6.99965C53.8891 6.99965 50.9661 9.92364 50.9661 13.5166V51.9074ZM8.07095 18.2711C8.20095 18.3051 8.33195 18.3221 8.46095 18.3221C9.12595 18.3221 9.73394 17.8801 9.91494 17.2061C10.1299 16.4031 9.65294 15.5781 8.84995 15.3621L3.01198 13.7991V11.7311L8.84995 10.1671C9.65294 9.95214 10.1299 9.12614 9.91494 8.32315C9.69994 7.51915 8.86995 7.04815 8.07095 7.25815L1.11599 9.12014C0.457997 9.29714 0 9.89314 0 10.5751V14.9541C0 15.6351 0.457997 16.2321 1.11599 16.4091L8.07095 18.2711Z" fill="black"/>
</svg>

<svg width="64" height="64" viewBox="0 0 64 64" fill="none" xmlns="http://www.w3.org/2000/svg"><path fill-rule="evenodd" clip-rule="evenodd" d="M21.46 10.012a3.51 3.51 0 0 0-3.505 3.505v38.39a3.509 3.509 0 0 0 3.505 3.504 3.509 3.509 0 0 0 3.506-3.504v-38.39a3.509 3.509 0 0 0-3.506-3.505Zm0 48.411a6.524 6.524 0 0 1-6.516-6.516v-38.39A6.524 6.524 0 0 1 21.46 7a6.525 6.525 0 0 1 6.518 6.517v38.39a6.525 6.525 0 0 1-6.518 6.516Zm14.507-44.906a3.509 3.509 0 0 1 3.505-3.505 3.51 3.51 0 0 1 3.505 3.505v38.39a3.509 3.509 0 0 1-3.505 3.504 3.509 3.509 0 0 1-3.505-3.504v-38.39Zm-3.012 38.39a6.525 6.525 0 0 0 6.517 6.516 6.524 6.524 0 0 0 6.516-6.516v-38.39A6.524 6.524 0 0 0 39.472 7a6.525 6.525 0 0 0-6.517 6.517v38.39Zm21.023-38.39a3.509 3.509 0 0 1 3.505-3.505 3.509 3.509 0 0 1 3.505 3.505v38.39a3.508 3.508 0 0 1-3.505 3.504 3.508 3.508 0 0 1-3.505-3.504v-38.39Zm-3.012 38.39a6.524 6.524 0 0 0 6.517 6.516A6.524 6.524 0 0 0 64 51.907v-38.39A6.524 6.524 0 0 0 57.483 7a6.524 6.524 0 0 0-6.517 6.517v38.39ZM8.071 18.271a1.506 1.506 0 1 0 .779-2.909L3.012 13.8v-2.068l5.838-1.564a1.506 1.506 0 0 0 1.065-1.844A1.511 1.511 0 0 0 8.07 7.258L1.116 9.12A1.507 1.507 0 0 0 0 10.575v4.38c0 .68.458 1.277 1.116 1.454l6.955 1.862Z" fill="currentColor"/></svg>
